icon/gr/image.svg

<svg xmlns="http://www.w3.org/2000/svg" viewBox="0 0 24 24" height="1em" width="1em">
  <path fill="none" stroke="#000" stroke-width="2" d="M1,3 L23,3 L23,21 L1,21 L1,3 Z M6,9 C6.55228475,9 7,8.55228475 7,8 C7,7.44771525 6.55228475,7 6,7 C5.44771525,7 5,7.44771525 5,8 C5,8.55228475 5.44771525,9 6,9 Z M23,15 L18,9 L12,16 L9,13 L1,21"/>
</svg>

<svg xmlns="http://www.w3.org/2000/svg" width="24" height="24"><path fill="none" stroke="#000" stroke-width="2" d="M1 3h22v18H1V3Zm5 6a1 1 0 1 0 0-2 1 1 0 0 0 0 2Zm17 6-5-6-6 7-3-3-8 8"/></svg>
